; generated by Slic3r 0.6.1-dev on 2012-02-25 at 07:01:16

; layer_height = 0.4
; perimeters = 3
; solid_layers = 2
; fill_density = 0.25
; nozzle_diameter = 0.4
; filament_diameter = 2.89
; perimeter_speed = 65
; infill_speed = 65
; travel_speed = 200
; extrusion_width_ratio = 0
; scale = 1
; single wall width = 0.42mm

M42 S160 P4 ; turn lights on 160 ~= 12.71V
G90 ; use absolute coordinates
G21 ; set units to millimeters
G28 ; home all axes
G92 E0 ; reset extruder
G1 Z0.1 F600 ; back off bed
M84 S30 ; 30s steper timeout
; G1 X100 Y100 F4000 ; move to center
; M106 S64 ; turn fan on 25%
; M107 ; turn fan off
G90 ; use absolute coordinates
G21 ; set units to millimeters
G92 E0 ; reset extrusion distance
M82 ; use absolute distances for extrusion
G1 Z0.400 F12000.000 ; move to next layer
G1 X78.810 Y79.100 ; move to first skirt point
G1 F600.000 E1.00000 ; compensate retraction
G1 X79.600 Y78.350 F1482.000 E1.02761 ; skirt
G1 X80.460 Y77.660 E1.05556 ; skirt
G1 X81.430 Y77.020 E1.08502 ; skirt
G1 X82.830 Y76.300 E1.12493 ; skirt
G1 X83.930 Y75.870 E1.15487 ; skirt
G1 X84.930 Y75.580 E1.18126 ; skirt
G1 X85.590 Y75.430 E1.19842 ; skirt
G1 X87.200 Y75.230 E1.23954 ; skirt
G1 X87.840 Y75.210 E1.25577 ; skirt
G1 X112.630 Y75.230 E1.88418 ; skirt
G1 X113.230 Y75.270 E1.89942 ; skirt
G1 X114.380 Y75.430 E1.92885 ; skirt
G1 X115.410 Y75.670 E1.95566 ; skirt
G1 X116.070 Y75.870 E1.97315 ; skirt
G1 X117.190 Y76.310 E2.00365 ; skirt
G1 X118.150 Y76.780 E2.03074 ; skirt
G1 X119.150 Y77.390 E2.06044 ; skirt
G1 X120.070 Y78.080 E2.08959 ; skirt
G1 X120.890 Y78.810 E2.11742 ; skirt
G1 X121.640 Y79.600 E2.14503 ; skirt
G1 X122.330 Y80.460 E2.17298 ; skirt
G1 X122.970 Y81.430 E2.20244 ; skirt
G1 X123.690 Y82.830 E2.24235 ; skirt
G1 X124.120 Y83.930 E2.27229 ; skirt
G1 X124.410 Y84.930 E2.29868 ; skirt
G1 X124.560 Y85.590 E2.31584 ; skirt
G1 X124.720 Y86.760 E2.34577 ; skirt
G1 X124.760 Y87.360 E2.36101 ; skirt
G1 X124.760 Y112.630 E3.00159 ; skirt
G1 X124.720 Y113.230 E3.01683 ; skirt
G1 X124.560 Y114.380 E3.04626 ; skirt
G1 X124.320 Y115.410 E3.07307 ; skirt
G1 X124.120 Y116.070 E3.09055 ; skirt
G1 X123.680 Y117.190 E3.12106 ; skirt
G1 X123.210 Y118.150 E3.14815 ; skirt
G1 X122.600 Y119.150 E3.17784 ; skirt
G1 X121.910 Y120.070 E3.20699 ; skirt
G1 X121.180 Y120.890 E3.23482 ; skirt
G1 X120.390 Y121.640 E3.26244 ; skirt
G1 X119.530 Y122.330 E3.29039 ; skirt
G1 X118.560 Y122.970 E3.31985 ; skirt
G1 X117.160 Y123.690 E3.35975 ; skirt
G1 X116.060 Y124.120 E3.38969 ; skirt
G1 X115.060 Y124.410 E3.41609 ; skirt
G1 X114.400 Y124.560 E3.43324 ; skirt
G1 X112.790 Y124.760 E3.47437 ; skirt
G1 X112.150 Y124.780 E3.49060 ; skirt
G1 X87.360 Y124.760 E4.11900 ; skirt
G1 X86.760 Y124.720 E4.13425 ; skirt
G1 X85.610 Y124.560 E4.16368 ; skirt
G1 X84.580 Y124.320 E4.19049 ; skirt
G1 X83.920 Y124.120 E4.20797 ; skirt
G1 X82.800 Y123.680 E4.23847 ; skirt
G1 X81.840 Y123.210 E4.26557 ; skirt
G1 X80.840 Y122.600 E4.29526 ; skirt
G1 X79.920 Y121.910 E4.32441 ; skirt
G1 X79.100 Y121.180 E4.35224 ; skirt
G1 X78.350 Y120.390 E4.37986 ; skirt
G1 X77.660 Y119.530 E4.40781 ; skirt
G1 X77.020 Y118.560 E4.43726 ; skirt
G1 X76.300 Y117.160 E4.47717 ; skirt
G1 X75.870 Y116.060 E4.50711 ; skirt
G1 X75.580 Y115.060 E4.53350 ; skirt
G1 X75.430 Y114.400 E4.55066 ; skirt
G1 X75.270 Y113.230 E4.58060 ; skirt
G1 X75.230 Y112.630 E4.59584 ; skirt
G1 X75.230 Y87.360 E5.23641 ; skirt
G1 X75.270 Y86.760 E5.25165 ; skirt
G1 X75.430 Y85.610 E5.28109 ; skirt
G1 X75.670 Y84.580 E5.30789 ; skirt
G1 X75.870 Y83.920 E5.32538 ; skirt
G1 X76.310 Y82.800 E5.35588 ; skirt
G1 X76.780 Y81.840 E5.38298 ; skirt
G1 X77.390 Y80.840 E5.41267 ; skirt
G1 X78.080 Y79.920 E5.44182 ; skirt
G1 X78.767 Y79.146 E5.46805 ; skirt
G1 F600.000 E4.46805 ; retract
G92 E0
G1 X92.780 Y92.780 F12000.000 ; move to first perimeter point
G1 F600.000 E1.00000 ; compensate retraction
G1 X93.437 Y92.179 F1482.000 E1.02258 ; perimeter
G1 X94.144 Y91.636 E1.04516 ; perimeter
G1 X94.895 Y91.158 E1.06774 ; perimeter
G1 X95.685 Y90.746 E1.09032 ; perimeter
G1 X96.508 Y90.406 E1.11290 ; perimeter
G1 X97.357 Y90.138 E1.13547 ; perimeter
G1 X98.227 Y89.945 E1.15805 ; perimeter
G1 X99.110 Y89.829 E1.18063 ; perimeter
G1 X100.000 Y89.790 E1.20321 ; perimeter
G1 X100.890 Y89.829 E1.22579 ; perimeter
G1 X101.773 Y89.945 E1.24837 ; perimeter
G1 X102.643 Y90.138 E1.27095 ; perimeter
G1 X103.492 Y90.406 E1.29353 ; perimeter
G1 X104.315 Y90.746 E1.31611 ; perimeter
G1 X105.105 Y91.158 E1.33869 ; perimeter
G1 X105.856 Y91.636 E1.36127 ; perimeter
G1 X106.563 Y92.179 E1.38384 ; perimeter
G1 X107.220 Y92.780 E1.40642 ; perimeter
G1 X107.821 Y93.437 E1.42900 ; perimeter
G1 X108.364 Y94.144 E1.45158 ; perimeter
G1 X108.842 Y94.895 E1.47416 ; perimeter
G1 X109.254 Y95.685 E1.49674 ; perimeter
G1 X109.594 Y96.508 E1.51932 ; perimeter
G1 X109.862 Y97.357 E1.54190 ; perimeter
G1 X110.055 Y98.227 E1.56448 ; perimeter
G1 X110.171 Y99.110 E1.58706 ; perimeter
G1 X110.210 Y100.000 E1.60964 ; perimeter
G1 X110.171 Y100.890 E1.63221 ; perimeter
G1 X110.055 Y101.773 E1.65479 ; perimeter
G1 X109.862 Y102.643 E1.67737 ; perimeter
G1 X109.594 Y103.492 E1.69995 ; perimeter
G1 X109.254 Y104.315 E1.72253 ; perimeter
G1 X108.842 Y105.105 E1.74511 ; perimeter
G1 X108.364 Y105.856 E1.76769 ; perimeter
G1 X107.821 Y106.563 E1.79027 ; perimeter
G1 X107.220 Y107.220 E1.81285 ; perimeter
G1 X106.563 Y107.821 E1.83543 ; perimeter
G1 X105.856 Y108.364 E1.85801 ; perimeter
G1 X105.105 Y108.842 E1.88058 ; perimeter
G1 X104.315 Y109.254 E1.90316 ; perimeter
G1 X103.492 Y109.594 E1.92574 ; perimeter
G1 X102.643 Y109.862 E1.94832 ; perimeter
G1 X101.773 Y110.055 E1.97090 ; perimeter
G1 X100.890 Y110.171 E1.99348 ; perimeter
G1 X100.000 Y110.210 E2.01606 ; perimeter
G1 X99.110 Y110.171 E2.03864 ; perimeter
G1 X98.227 Y110.055 E2.06122 ; perimeter
G1 X97.357 Y109.862 E2.08380 ; perimeter
G1 X96.508 Y109.594 E2.10638 ; perimeter
G1 X95.685 Y109.254 E2.12895 ; perimeter
G1 X94.895 Y108.842 E2.15153 ; perimeter
G1 X94.144 Y108.364 E2.17411 ; perimeter
G1 X93.437 Y107.821 E2.19669 ; perimeter
G1 X92.780 Y107.220 E2.21927 ; perimeter
G1 X92.179 Y106.563 E2.24185 ; perimeter
G1 X91.636 Y105.856 E2.26443 ; perimeter
G1 X91.158 Y105.105 E2.28701 ; perimeter
G1 X90.746 Y104.315 E2.30959 ; perimeter
G1 X90.406 Y103.492 E2.33217 ; perimeter
G1 X90.138 Y102.643 E2.35475 ; perimeter
G1 X89.945 Y101.773 E2.37732 ; perimeter
G1 X89.829 Y100.890 E2.39990 ; perimeter
G1 X89.790 Y100.000 E2.42248 ; perimeter
G1 X89.829 Y99.110 E2.44506 ; perimeter
G1 X89.945 Y98.227 E2.46764 ; perimeter
G1 X90.138 Y97.357 E2.49022 ; perimeter
G1 X90.406 Y96.508 E2.51280 ; perimeter
G1 X90.746 Y95.685 E2.53538 ; perimeter
G1 X91.158 Y94.895 E2.55796 ; perimeter
G1 X91.636 Y94.144 E2.58054 ; perimeter
G1 X92.179 Y93.437 E2.60312 ; perimeter
G1 X92.738 Y92.827 E2.62410 ; perimeter
G1 X92.489 Y92.489 F12000.000 ; move to first perimeter point
G1 X93.172 Y91.863 F1482.000 E2.64759 ; perimeter
G1 X93.907 Y91.298 E2.67108 ; perimeter
G1 X94.689 Y90.800 E2.69457 ; perimeter
G1 X95.511 Y90.373 E2.71806 ; perimeter
G1 X96.367 Y90.018 E2.74156 ; perimeter
G1 X97.251 Y89.739 E2.76505 ; perimeter
G1 X98.155 Y89.539 E2.78854 ; perimeter
G1 X99.074 Y89.418 E2.81203 ; perimeter
G1 X100.000 Y89.377 E2.83552 ; perimeter
G1 X100.926 Y89.418 E2.85901 ; perimeter
G1 X101.845 Y89.539 E2.88250 ; perimeter
G1 X102.749 Y89.739 E2.90599 ; perimeter
G1 X103.633 Y90.018 E2.92949 ; perimeter
G1 X104.489 Y90.373 E2.95298 ; perimeter
G1 X105.311 Y90.800 E2.97647 ; perimeter
G1 X106.093 Y91.298 E2.99996 ; perimeter
G1 X106.828 Y91.863 E3.02345 ; perimeter
G1 X107.511 Y92.489 E3.04694 ; perimeter
G1 X108.137 Y93.172 E3.07043 ; perimeter
G1 X108.702 Y93.907 E3.09393 ; perimeter
G1 X109.200 Y94.689 E3.11742 ; perimeter
G1 X109.627 Y95.511 E3.14091 ; perimeter
G1 X109.982 Y96.367 E3.16440 ; perimeter
G1 X110.261 Y97.251 E3.18789 ; perimeter
G1 X110.461 Y98.155 E3.21138 ; perimeter
G1 X110.582 Y99.074 E3.23487 ; perimeter
G1 X110.623 Y100.000 E3.25837 ; perimeter
G1 X110.582 Y100.926 E3.28186 ; perimeter
G1 X110.461 Y101.845 E3.30535 ; perimeter
G1 X110.261 Y102.749 E3.32884 ; perimeter
G1 X109.982 Y103.633 E3.35233 ; perimeter
G1 X109.627 Y104.489 E3.37582 ; perimeter
G1 X109.200 Y105.311 E3.39931 ; perimeter
G1 X108.702 Y106.093 E3.42281 ; perimeter
G1 X108.137 Y106.828 E3.44630 ; perimeter
G1 X107.511 Y107.511 E3.46979 ; perimeter
G1 X106.828 Y108.137 E3.49328 ; perimeter
G1 X106.093 Y108.702 E3.51677 ; perimeter
G1 X105.311 Y109.200 E3.54026 ; perimeter
G1 X104.489 Y109.627 E3.56375 ; perimeter
G1 X103.633 Y109.982 E3.58725 ; perimeter
G1 X102.749 Y110.261 E3.61074 ; perimeter
G1 X101.845 Y110.461 E3.63423 ; perimeter
G1 X100.926 Y110.582 E3.65772 ; perimeter
G1 X100.000 Y110.623 E3.68121 ; perimeter
G1 X99.074 Y110.582 E3.70470 ; perimeter
G1 X98.155 Y110.461 E3.72819 ; perimeter
G1 X97.251 Y110.261 E3.75169 ; perimeter
G1 X96.367 Y109.982 E3.77518 ; perimeter
G1 X95.511 Y109.627 E3.79867 ; perimeter
G1 X94.689 Y109.200 E3.82216 ; perimeter
G1 X93.907 Y108.702 E3.84565 ; perimeter
G1 X93.172 Y108.137 E3.86914 ; perimeter
G1 X92.489 Y107.511 E3.89263 ; perimeter
G1 X91.863 Y106.828 E3.91612 ; perimeter
G1 X91.298 Y106.093 E3.93962 ; perimeter
G1 X90.800 Y105.311 E3.96311 ; perimeter
G1 X90.373 Y104.489 E3.98660 ; perimeter
G1 X90.018 Y103.633 E4.01009 ; perimeter
G1 X89.739 Y102.749 E4.03358 ; perimeter
G1 X89.539 Y101.845 E4.05707 ; perimeter
G1 X89.418 Y100.926 E4.08056 ; perimeter
G1 X89.377 Y100.000 E4.10406 ; perimeter
G1 X89.418 Y99.074 E4.12755 ; perimeter
G1 X89.539 Y98.155 E4.15104 ; perimeter
G1 X89.739 Y97.251 E4.17453 ; perimeter
G1 X90.018 Y96.367 E4.19802 ; perimeter
G1 X90.373 Y95.511 E4.22151 ; perimeter
G1 X90.800 Y94.689 E4.24500 ; perimeter
G1 X91.298 Y93.907 E4.26850 ; perimeter
G1 X91.863 Y93.172 E4.29199 ; perimeter
G1 X92.446 Y92.535 E4.31388 ; perimeter
G1 X92.197 Y92.197 F12000.000 ; move to first perimeter point
G1 X92.907 Y91.546 F1482.000 E4.33829 ; perimeter
G1 X93.670 Y90.960 E4.36269 ; perimeter
G1 X94.482 Y90.443 E4.38709 ; perimeter
G1 X95.336 Y89.999 E4.41150 ; perimeter
G1 X96.226 Y89.630 E4.43590 ; perimeter
G1 X97.144 Y89.341 E4.46030 ; perimeter
G1 X98.084 Y89.132 E4.48471 ; perimeter
G1 X99.038 Y89.007 E4.50911 ; perimeter
G1 X100.000 Y88.965 E4.53351 ; perimeter
G1 X100.962 Y89.007 E4.55792 ; perimeter
G1 X101.916 Y89.132 E4.58232 ; perimeter
G1 X102.856 Y89.341 E4.60673 ; perimeter
G1 X103.774 Y89.630 E4.63113 ; perimeter
G1 X104.664 Y89.999 E4.65553 ; perimeter
G1 X105.518 Y90.443 E4.67994 ; perimeter
G1 X106.330 Y90.960 E4.70434 ; perimeter
G1 X107.093 Y91.546 E4.72874 ; perimeter
G1 X107.803 Y92.197 E4.75315 ; perimeter
G1 X108.454 Y92.907 E4.77755 ; perimeter
G1 X109.040 Y93.670 E4.80196 ; perimeter
G1 X109.557 Y94.482 E4.82636 ; perimeter
G1 X110.001 Y95.336 E4.85076 ; perimeter
G1 X110.370 Y96.226 E4.87517 ; perimeter
G1 X110.659 Y97.144 E4.89957 ; perimeter
G1 X110.868 Y98.084 E4.92397 ; perimeter
G1 X110.993 Y99.038 E4.94838 ; perimeter
G1 X111.035 Y100.000 E4.97278 ; perimeter
G1 X110.993 Y100.962 E4.99719 ; perimeter
G1 X110.868 Y101.916 E5.02159 ; perimeter
G1 X110.659 Y102.856 E5.04599 ; perimeter
G1 X110.370 Y103.774 E5.07040 ; perimeter
G1 X110.001 Y104.664 E5.09480 ; perimeter
G1 X109.557 Y105.518 E5.11920 ; perimeter
G1 X109.040 Y106.330 E5.14361 ; perimeter
G1 X108.454 Y107.093 E5.16801 ; perimeter
G1 X107.803 Y107.803 E5.19241 ; perimeter
G1 X107.093 Y108.454 E5.21682 ; perimeter
G1 X106.330 Y109.040 E5.24122 ; perimeter
G1 X105.518 Y109.557 E5.26563 ; perimeter
G1 X104.664 Y110.001 E5.29003 ; perimeter
G1 X103.774 Y110.370 E5.31443 ; perimeter
G1 X102.856 Y110.659 E5.33884 ; perimeter
G1 X101.916 Y110.868 E5.36324 ; perimeter
G1 X100.962 Y110.993 E5.38764 ; perimeter
G1 X100.000 Y111.035 E5.41205 ; perimeter
G1 X99.038 Y110.993 E5.43645 ; perimeter
G1 X98.084 Y110.868 E5.46086 ; perimeter
G1 X97.144 Y110.659 E5.48526 ; perimeter
G1 X96.226 Y110.370 E5.50966 ; perimeter
G1 X95.336 Y110.001 E5.53407 ; perimeter
G1 X94.482 Y109.557 E5.55847 ; perimeter
G1 X93.670 Y109.040 E5.58287 ; perimeter
G1 X92.907 Y108.454 E5.60728 ; perimeter
G1 X92.197 Y107.803 E5.63168 ; perimeter
G1 X91.546 Y107.093 E5.65608 ; perimeter
G1 X90.960 Y106.330 E5.68049 ; perimeter
G1 X90.443 Y105.518 E5.70489 ; perimeter
G1 X89.999 Y104.664 E5.72930 ; perimeter
G1 X89.630 Y103.774 E5.75370 ; perimeter
G1 X89.341 Y102.856 E5.77810 ; perimeter
G1 X89.132 Y101.916 E5.80251 ; perimeter
G1 X89.007 Y100.962 E5.82691 ; perimeter
G1 X88.965 Y100.000 E5.85131 ; perimeter
G1 X89.007 Y99.038 E5.87572 ; perimeter
G1 X89.132 Y98.084 E5.90012 ; perimeter
G1 X89.341 Y97.144 E5.92453 ; perimeter
G1 X89.630 Y96.226 E5.94893 ; perimeter
G1 X89.999 Y95.336 E5.97333 ; perimeter
G1 X90.443 Y94.482 E5.99774 ; perimeter
G1 X90.960 Y93.670 E6.02214 ; perimeter
G1 X91.546 Y92.907 E6.04654 ; perimeter
G1 X92.154 Y92.243 E6.06935 ; perimeter
G1 F600.000 E5.06935 ; retract
G92 E0
G1 X88.021 Y81.034 F12000.000 ; move to first perimeter point
G1 F600.000 E1.00000 ; compensate retraction
G1 X112.587 Y81.061 F1482.000 E1.62272 ; perimeter
G1 X113.160 Y81.133 E1.63737 ; perimeter
G1 X113.757 Y81.261 E1.65286 ; perimeter
G1 X114.342 Y81.442 E1.66837 ; perimeter
G1 X114.924 Y81.679 E1.68431 ; perimeter
G1 X115.476 Y81.965 E1.70005 ; perimeter
G1 X115.993 Y82.294 E1.71559 ; perimeter
G1 X116.476 Y82.664 E1.73103 ; perimeter
G1 X116.925 Y83.075 E1.74644 ; perimeter
G1 X117.335 Y83.523 E1.76185 ; perimeter
G1 X117.705 Y84.005 E1.77725 ; perimeter
G1 X118.031 Y84.517 E1.79263 ; perimeter
G1 X118.319 Y85.072 E1.80847 ; perimeter
G1 X118.559 Y85.659 E1.82455 ; perimeter
G1 X118.740 Y86.249 E1.84019 ; perimeter
G1 X118.867 Y86.844 E1.85562 ; perimeter
G1 X118.939 Y87.416 E1.87023 ; perimeter
G1 X118.939 Y112.587 E2.50830 ; perimeter
G1 X118.867 Y113.160 E2.52294 ; perimeter
G1 X118.739 Y113.757 E2.53843 ; perimeter
G1 X118.558 Y114.342 E2.55394 ; perimeter
G1 X118.321 Y114.924 E2.56988 ; perimeter
G1 X118.035 Y115.476 E2.58562 ; perimeter
G1 X117.706 Y115.993 E2.60115 ; perimeter
G1 X117.336 Y116.476 E2.61659 ; perimeter
G1 X116.925 Y116.925 E2.63201 ; perimeter
G1 X116.477 Y117.335 E2.64741 ; perimeter
G1 X115.995 Y117.705 E2.66282 ; perimeter
G1 X115.483 Y118.031 E2.67820 ; perimeter
G1 X114.928 Y118.319 E2.69404 ; perimeter
G1 X114.341 Y118.559 E2.71012 ; perimeter
G1 X113.751 Y118.740 E2.72576 ; perimeter
G1 X113.156 Y118.867 E2.74118 ; perimeter
G1 X112.563 Y118.941 E2.75634 ; perimeter
G1 X111.979 Y118.966 E2.77115 ; perimeter
G1 X87.413 Y118.939 E3.39387 ; perimeter
G1 X86.840 Y118.867 E3.40852 ; perimeter
G1 X86.243 Y118.739 E3.42401 ; perimeter
G1 X85.658 Y118.558 E3.43953 ; perimeter
G1 X85.076 Y118.321 E3.45546 ; perimeter
G1 X84.524 Y118.035 E3.47121 ; perimeter
G1 X84.007 Y117.706 E3.48674 ; perimeter
G1 X83.524 Y117.336 E3.50218 ; perimeter
G1 X83.075 Y116.925 E3.51759 ; perimeter
G1 X82.665 Y116.477 E3.53300 ; perimeter
G1 X82.295 Y115.995 E3.54840 ; perimeter
G1 X81.969 Y115.483 E3.56379 ; perimeter
G1 X81.681 Y114.928 E3.57962 ; perimeter
G1 X81.441 Y114.341 E3.59570 ; perimeter
G1 X81.260 Y113.751 E3.61134 ; perimeter
G1 X81.133 Y113.156 E3.62677 ; perimeter
G1 X81.061 Y112.584 E3.64138 ; perimeter
G1 X81.061 Y87.413 E4.27945 ; perimeter
G1 X81.133 Y86.840 E4.29409 ; perimeter
G1 X81.261 Y86.243 E4.30958 ; perimeter
G1 X81.442 Y85.658 E4.32509 ; perimeter
G1 X81.679 Y85.076 E4.34103 ; perimeter
G1 X81.965 Y84.524 E4.35677 ; perimeter
G1 X82.294 Y84.007 E4.37231 ; perimeter
G1 X82.664 Y83.524 E4.38775 ; perimeter
G1 X83.075 Y83.075 E4.40316 ; perimeter
G1 X83.523 Y82.665 E4.41857 ; perimeter
G1 X84.005 Y82.295 E4.43397 ; perimeter
G1 X84.517 Y81.969 E4.44935 ; perimeter
G1 X85.072 Y81.681 E4.46519 ; perimeter
G1 X85.659 Y81.441 E4.48127 ; perimeter
G1 X86.249 Y81.260 E4.49691 ; perimeter
G1 X86.844 Y81.133 E4.51234 ; perimeter
G1 X87.437 Y81.059 E4.52750 ; perimeter
G1 X87.958 Y81.037 E4.54071 ; perimeter
G1 X88.013 Y80.622 F12000.000 ; move to first perimeter point
